src/components/00-materials/images-raw/Badge.svg

<svg width="96" height="96" viewBox="0 0 96 96" fill="none" xmlns="http://www.w3.org/2000/svg">
<path d="M14.5 63.25H81.5M60 26.25H75.76C76.5146 26.25 77.2619 26.3988 77.9589 26.6879C78.656 26.977 79.2892 27.4007 79.8223 27.9347C80.3555 28.4688 80.7781 29.1028 81.0659 29.8003C81.3538 30.4979 81.5013 31.2454 81.5 32V67.51C81.5 69.0323 80.8953 70.4923 79.8188 71.5688C78.7423 72.6453 77.2823 73.25 75.76 73.25H20.24C18.7177 73.25 17.2577 72.6453 16.1812 71.5688C15.1047 70.4923 14.5 69.0323 14.5 67.51V32C14.5 30.4777 15.1047 29.0177 16.1812 27.9412C17.2577 26.8647 18.7177 26.26 20.24 26.26H36L60 26.25Z" stroke="#00008F" stroke-width="2" stroke-linecap="round" stroke-linejoin="round"/>
<path d="M23.5 36.25H39.5V55.25H23.5V36.25ZM48.5 37.25H73.5H48.5ZM48.5 42.25H60.5H48.5ZM48.5 53.25H55.5H48.5ZM62 53.25H64H62ZM69.5 53.5H71.5H69.5ZM36 22.75H60V29.75H36V22.75Z" stroke="#00008F" stroke-width="2" stroke-linecap="round" stroke-linejoin="round"/>
</svg>

<svg width="96" height="96" viewBox="0 0 96 96" fill="none" xmlns="http://www.w3.org/2000/svg"><path d="M14.5 63.25h67m-21.5-37h15.76A5.74 5.74 0 0181.5 32v35.51a5.74 5.74 0 01-5.74 5.74H20.24a5.74 5.74 0 01-5.74-5.74V32a5.74 5.74 0 015.74-5.74H36l24-.01z" stroke="#00008F" stroke-width="2" stroke-linecap="round" stroke-linejoin="round"/><path d="M23.5 36.25h16v19h-16v-19zm25 1h25-25zm0 5h12-12zm0 11h7-7zm13.5 0h2-2zm7.5.25h2-2zM36 22.75h24v7H36v-7z" stroke="#00008F" stroke-width="2" stroke-linecap="round" stroke-linejoin="round"/></svg>
